Source/WebInspectorUI/UserInterface/Images/gtk/NavigationItemBrushAndRuler.svg

<?xml version="1.0" encoding="UTF-8" standalone="no"?>
<!-- Created with Inkscape (http://www.inkscape.org/) -->

<svg
   xmlns:dc="http://purl.org/dc/elements/1.1/"
   xmlns:cc="http://creativecommons.org/ns#"
   xmlns:rdf="http://www.w3.org/1999/02/22-rdf-syntax-ns#"
   xmlns:svg="http://www.w3.org/2000/svg"
   xmlns="http://www.w3.org/2000/svg"
   version="1.1"
   width="16"
   height="16"
   id="svg7526">
  <defs
     id="defs7528">
    <linearGradient
       id="linearGradient19282"
       gradientTransform="matrix(-2.3934765,0.36393991,-0.16537651,-1.2902821,-54.066392,-2627.2326)">
      <stop
         id="stop19284"
         style="stop-color:#666666;stop-opacity:1"
         offset="0" />
    </linearGradient>
    <linearGradient
       id="linearGradient6731"
       gradientTransform="matrix(-2.7365795,0.40810354,-0.18908311,-1.4468561,239.54008,-1703.6896)">
      <stop
         id="stop6733"
         style="stop-color:#666666;stop-opacity:1"
         offset="0" />
    </linearGradient>
    <linearGradient
       id="linearGradient6735"
       gradientTransform="matrix(-2.7365795,0.40810354,-0.18908311,-1.4468561,239.54008,-1703.6896)">
      <stop
         id="stop6737"
         style="stop-color:#666666;stop-opacity:1"
         offset="0" />
    </linearGradient>
    <linearGradient
       id="linearGradient6739"
       gradientTransform="matrix(-2.7365795,0.40810354,-0.18908311,-1.4468561,239.54008,-1703.6896)">
      <stop
         id="stop6741"
         style="stop-color:#666666;stop-opacity:1"
         offset="0" />
    </linearGradient>
    <linearGradient
       id="linearGradient6743"
       gradientTransform="matrix(-2.7365795,0.40810354,-0.18908311,-1.4468561,239.54008,-1703.6896)">
      <stop
         id="stop6745"
         style="stop-color:#666666;stop-opacity:1"
         offset="0" />
    </linearGradient>
    <linearGradient
       id="linearGradient19282-5"
       gradientTransform="matrix(-2.7365795,0.40810354,-0.18908311,-1.4468561,239.54008,-1703.6896)">
      <stop
         id="stop19284-2"
         style="stop-color:#666666;stop-opacity:1"
         offset="0" />
    </linearGradient>
    <linearGradient
       id="linearGradient6767"
       gradientTransform="matrix(-2.7365795,0.40810354,-0.18908311,-1.4468561,239.54008,-1703.6896)">
      <stop
         id="stop6769"
         style="stop-color:#666666;stop-opacity:1"
         offset="0" />
    </linearGradient>
    <linearGradient
       id="linearGradient6771"
       gradientTransform="matrix(-2.7365795,0.40810354,-0.18908311,-1.4468561,239.54008,-1703.6896)">
      <stop
         id="stop6773"
         style="stop-color:#666666;stop-opacity:1"
         offset="0" />
    </linearGradient>
    <linearGradient
       id="linearGradient6775"
       gradientTransform="matrix(-2.7365795,0.40810354,-0.18908311,-1.4468561,239.54008,-1703.6896)">
      <stop
         id="stop6777"
         style="stop-color:#666666;stop-opacity:1"
         offset="0" />
    </linearGradient>
    <linearGradient
       id="linearGradient6779"
       gradientTransform="matrix(-2.7365795,0.40810354,-0.18908311,-1.4468561,239.54008,-1703.6896)">
      <stop
         id="stop6781"
         style="stop-color:#666666;stop-opacity:1"
         offset="0" />
    </linearGradient>
    <linearGradient
       id="linearGradient6783"
       gradientTransform="matrix(-2.7365795,0.40810354,-0.18908311,-1.4468561,239.54008,-1703.6896)">
      <stop
         id="stop6785"
         style="stop-color:#666666;stop-opacity:1"
         offset="0" />
    </linearGradient>
    <linearGradient
       id="linearGradient6787"
       gradientTransform="matrix(-2.7365795,0.40810354,-0.18908311,-1.4468561,239.54008,-1703.6896)">
      <stop
         id="stop6789"
         style="stop-color:#666666;stop-opacity:1"
         offset="0" />
    </linearGradient>
    <linearGradient
       id="linearGradient6791"
       gradientTransform="matrix(-2.7365795,0.40810354,-0.18908311,-1.4468561,239.54008,-1703.6896)">
      <stop
         id="stop6793"
         style="stop-color:#666666;stop-opacity:1"
         offset="0" />
    </linearGradient>
    <linearGradient
       id="linearGradient6795"
       gradientTransform="matrix(-2.7365795,0.40810354,-0.18908311,-1.4468561,239.54008,-1703.6896)">
      <stop
         id="stop6797"
         style="stop-color:#666666;stop-opacity:1"
         offset="0" />
    </linearGradient>
    <linearGradient
       id="linearGradient19282-2"
       gradientTransform="matrix(-0.3603726,0.05374203,-0.02489983,-0.19053249,-524.45529,-1796.9344)">
      <stop
         id="stop19284-4"
         style="stop-color:#666666;stop-opacity:1"
         offset="0" />
    </linearGradient>
    <linearGradient
       id="linearGradient6822"
       gradientTransform="matrix(-2.7365795,0.40810354,-0.18908311,-1.4468561,239.54008,-1703.6896)">
      <stop
         id="stop6824"
         style="stop-color:#666666;stop-opacity:1"
         offset="0" />
    </linearGradient>
    <linearGradient
       id="linearGradient6826"
       gradientTransform="matrix(-2.7365795,0.40810354,-0.18908311,-1.4468561,239.54008,-1703.6896)">
      <stop
         id="stop6828"
         style="stop-color:#666666;stop-opacity:1"
         offset="0" />
    </linearGradient>
    <linearGradient
       id="linearGradient6830"
       gradientTransform="matrix(-2.7365795,0.40810354,-0.18908311,-1.4468561,239.54008,-1703.6896)">
      <stop
         id="stop6832"
         style="stop-color:#666666;stop-opacity:1"
         offset="0" />
    </linearGradient>
    <linearGradient
       id="linearGradient6834"
       gradientTransform="matrix(-2.7365795,0.40810354,-0.18908311,-1.4468561,239.54008,-1703.6896)">
      <stop
         id="stop6836"
         style="stop-color:#666666;stop-opacity:1"
         offset="0" />
    </linearGradient>
    <linearGradient
       id="linearGradient19282-7"
       gradientTransform="matrix(-2.7365795,0.40810354,-0.18908311,-1.4468561,-91.460119,-2935.4358)">
      <stop
         id="stop19284-9"
         style="stop-color:#666666;stop-opacity:1"
         offset="0" />
    </linearGradient>
    <linearGradient
       id="linearGradient19282-1"
       gradientTransform="matrix(-2.3934765,0.36393991,-0.16537651,-1.2902821,-54.066392,-2627.2326)">
      <stop
         id="stop19284-21"
         style="stop-color:#666666;stop-opacity:1"
         offset="0" />
    </linearGradient>
    <linearGradient
       id="linearGradient8245"
       gradientTransform="matrix(-2.7365795,0.40810354,-0.18908311,-1.4468561,-91.460119,-2935.4357)">
      <stop
         id="stop8247"
         style="stop-color:#666666;stop-opacity:1"
         offset="0" />
    </linearGradient>
  </defs>
  <metadata
     id="metadata7531">
    <rdf:RDF>
      <cc:Work
         rdf:about="">
        <dc:format>image/svg+xml</dc:format>
        <dc:type
           rdf:resource="http://purl.org/dc/dcmitype/StillImage" />
        <cc:license
           rdf:resource="http://creativecommons.org/licenses/by-sa/3.0/" />
        <dc:title></dc:title>
      </cc:Work>
      <cc:License
         rdf:about="http://creativecommons.org/licenses/by-sa/3.0/">
        <cc:permits
           rdf:resource="http://creativecommons.org/ns#Reproduction" />
        <cc:permits
           rdf:resource="http://creativecommons.org/ns#Distribution" />
        <cc:requires
           rdf:resource="http://creativecommons.org/ns#Notice" />
        <cc:requires
           rdf:resource="http://creativecommons.org/ns#Attribution" />
        <cc:permits
           rdf:resource="http://creativecommons.org/ns#DerivativeWorks" />
        <cc:requires
           rdf:resource="http://creativecommons.org/ns#ShareAlike" />
      </cc:License>
    </rdf:RDF>
  </metadata>
  <g
     transform="matrix(1.0432745,0,0,1.0432745,-0.1786406,-0.68459245)"
     id="layer1">
    <path
       d="M 15.25,0.65625 C 15.099972,0.65894 14.900763,0.75708125 14.6875,0.96875 10.688761,4.93759 9.989927,4.9753301 6.25,10.125 7.25355,10.1627 8.11506,10.81365 8.5625,11.75 12.989927,6.9775401 13.48894,4.42617 15.40625,1.34375 15.598977,0.92762499 15.500047,0.65176612 15.25,0.65625 z M 1,1.5 1,14.125 c 0.498688,1.8e-4 0.7312067,-0.09104 0.9375,-0.25 C 2.1437933,13.716038 2.3459779,13.45262 2.53125,13.09375 2.6856434,12.794692 2.8232894,12.388712 3,12 l 0,-0.5 0.28125,0 C 3.5082914,11.131852 3.796783,10.783162 4.25,10.5 L 3,10.5 3,9.46875 C 3.032607,9.47539 3.059125,9.5 3.09375,9.5 l 2.375,0 C 5.6454206,9.256968 5.7732727,9.0653885 5.9375,8.84375 5.8695101,8.6485151 5.6877297,8.5 5.46875,8.5 l -2.375,0 C 3.060061,8.5 3.031788,8.49371 3,8.5 l 0,-1 1.5,0 C 4.777,7.5 5,7.277 5,7 5,6.723 4.777,6.5 4.5,6.5 l -1.5,0 0,-1 1.5,0 C 4.777,5.5 5,5.277 5,5 5,4.723 4.777,4.5 4.5,4.5 l -1.5,0 0,-1 4.1875,0 c 1.1860754,0 1.6915845,0.6659492 1.78125,1.625 0.5272612,-0.5656532 1.078162,-1.0758141 1.625,-1.59375 C 10.072162,2.3831019 9.0255133,1.5 7.3125,1.5 L 1,1.5 z m 10,9.03125 C 10.505823,11.138328 9.9475104,11.753003 9.3125,12.4375 L 8.96875,12.78125 C 9.044847,13.402497 8.941361,13.983975 8.71875,14.5 L 11,14.5 11,10.53125 z M 5.875,11 C 5.5297332,11.008154 5.1327525,11.104613 4.75,11.34375 3.4288149,12.169203 3.7210802,15.125981 1,15.125 c 0.2576317,0.997882 4.1663795,1.231487 5.78125,0.1875 0.8418198,-0.544223 1.4629939,-1.550425 1.125,-2.78125 C 7.7053515,11.799665 6.9108005,10.975538 5.875,11 z"
       id="path9264"
       style="fill-opacity:1;stroke:none" />
  </g>
</svg>

<?xml version="1.0" encoding="UTF-8" standalone="no"?>
<!-- Licensed under the Creative Commons Attribution-Share Alike 3.0 United States License (http://creativecommons.org/licenses/by-sa/3.0/) -->
<svg xmlns="http://www.w3.org/2000/svg" version="1.1" viewBox="0 0 16 16">
 <g transform="matrix(1.0433 0 0 1.0433 -.17864 -.68459)">
  <path d="m15.25 0.65625c-0.15 0.00269-0.349 0.10083-0.562 0.3125-3.999 3.9688-4.6981 4.0066-8.438 9.1562 1.0036 0.038 1.8651 0.689 2.3125 1.625 4.4275-4.7725 4.9265-7.3238 6.8435-10.406 0.193-0.41638 0.094-0.69223-0.156-0.68775zm-14.25 0.84375v12.625c0.49869 0.00018 0.73121-0.09104 0.9375-0.25 0.2063-0.159 0.4085-0.422 0.5937-0.781 0.1544-0.299 0.2921-0.705 0.4688-1.094v-0.5h0.28125c0.2271-0.368 0.5156-0.717 0.9688-1h-1.25v-1.0312c0.0326 0.0066 0.0591 0.0312 0.0938 0.0312h2.375c0.1766-0.243 0.3045-0.4346 0.4687-0.6562-0.068-0.1953-0.2498-0.3438-0.4687-0.3438h-2.375c-0.0337 0-0.062-0.0063-0.0938 0v-1h1.5c0.277 0 0.5-0.223 0.5-0.5s-0.223-0.5-0.5-0.5h-1.5v-1h1.5c0.277 0 0.5-0.223 0.5-0.5s-0.223-0.5-0.5-0.5h-1.5v-1h4.1875c1.1861 0 1.6916 0.66595 1.7812 1.625 0.52726-0.56565 1.0782-1.0758 1.625-1.5938-0.522-1.1481-1.5685-2.0312-3.2815-2.0312h-6.3125zm10 9.0312c-0.494 0.607-1.0525 1.222-1.6875 1.907l-0.3437 0.343c0.076 0.621-0.0274 1.203-0.25 1.719h2.2812v-3.969zm-5.125 0.469c-0.3453 0.008-0.7422 0.105-1.125 0.344-1.3212 0.825-1.0289 3.782-3.75 3.781 0.25763 0.99788 4.1664 1.2315 5.7812 0.1875 0.84182-0.54422 1.463-1.5504 1.125-2.7812-0.2008-0.731-0.9954-1.555-2.0312-1.531z"/>
 </g>
</svg>
